X:36
T:Revelee'. THO5.036, The
M:6/8
L:1/8
B:Thompson's Complete Collection of 200 Favourite Dances Vol.5
F:https://www.libraryofdance.org/manuals/1780c-Thompson-Compleat-5.pdf
Z:vmp. Peter Dunk 2024
Q:3/8=110
K:A
e/d/|c2 A- ABA|G2E EFE|FBc dBA|GBe E2 e/d/|
c2A- ABA|G2E- EFE|FBc dBG|A3 A,2:|
|:[AA,]|[AA,]Ac ecA|[BB,]Bd|fdB|Ace aba|g2e-e3|
[AA,]Ac ecA|[BB,]Bd|bge af^d|e3-e2 e/d/|
c2A- ABA|G2E- EFE|FBc dBA|GBe E2 e/d/|
c2A- ABA|G2E- EFE|FBc dBG|A3 A,2:|
W:
W:Turn right hands round, left hands back again ./.
W:lead down two Couple: cast up one Couple ./:
W:set 3 and 3 top and bottom then sideways :/.
W:hands 6 quite round :/:

